X:26
T:A Public Embarrassment
R:reel
C: 1977, 2010 L.E. McCullough  
M:4/4 
L:1/8
K:Ador
~A3B AGBd|eBdB BAGE|~G3B AGEG|DGBG BedB|
~A3B AGBd|eged BAGE|DEGA Bded|1BAGE ~A3G:|2 BAGE ~A3d|]
|:~e3g aged|edeg abag|a~g3 edBA|GBAG BedB|
~e3g abag|~a3b aged|e~g3 edeg|1 edBG ~A3d:|2 edBG ~A3G|]
 

